X:1
T:Defender of my rightful cause
T:Philip Hayes
T:p14, Improved Psalmody, ed. W. D. Tattersall, London: (1794)
T:This edition by Edmund Gooch released into the public domain, September 2012.
T:Defender of my rightful cause
T:PSALM 4. Ver: 1. 2. 3. 4. An Incitement to private Meditation.
C:Philip Hayes
Z:p14, Improved Psalmody,
Z:ed. W. D. Tattersall,
Z:London: (1794)
%%score [ 1 2 3 ]
L:1/8
M:3/4
K:Bb
V:1 treble nm="Soprano" snm="S."
V:2 treble nm="Alto" snm="A."
V:3 bass nm="Bass" snm="B."
V:1
 B2 | B4 F2 | d4 B2 | f4 e2 | d4 d2 | (d2 c2) B2 | (B2 c2) d2 | e4 (dc) | d4 F2 | B4 c2 | %10
w: To|God my|heart shall|vent its|woe, Who,|prompt _ his|bles- * sings|to be- *|stow On|each whose|
w: De-|fen- der|of my|right- ful|cause, While|an- * guish|from _ my|bo- som _|draws The|deep- felt|
w: How|long, ye|sons of|pride, how|long Shall|false- * hood|arm _ your|im- pious _|tongue? How|long shall|
 d2 z2 d2 | (d2 c2) d2 | e4 e2 | e4 d2 | (d2 c2) c2 | (c2 B2) A2 | B4 B2 | B4 B2 | e4 e2 | %19
w: breast has|learn'd _ his|fear, Bows|to my|plaint _ the|wil- * ling|ear: Him|wouldst thou|please? With|
w: sigh, the|cease- * less|pray’r, O|make thy|ser- * vant|still _ thy|care; That|aid, which|oft my|
w: se- cret|love _ of|ill To|wretch- ed|ma- * lice|prompt _ your|will, And|er- ring|rage your|
 (e2 d2) c2 | d4 f2 | (f2 e2) e2 | (e2 d2) d2 | e4 (dc) | B4 |] %25
w: rev- * ’rent|awe Ob-|serve _ the|dic- * tates|of his _|law.|
w: griefs _ has|heal’d, That|aid, _ a-|gain _ in-|trea- ted, _|yield.|
w: breast _ in-|flame, My|pow'r _ to|thwart, _ my|acts de- *|fame?|
V:2
 D2 | D4 D2 | F4 D2 | (F2 G2) A2 | B4 B2 | (B2 A2) G2 | (G2 A2) B2 | (c2 G2) (BA) | B4 D2 | F4 A2 | %10
w: To|God my|heart shall|vent _ its|woe, Who,|prompt _ his|bles- * sings|to _ be- *|stow On|each whose|
w: De-|fen- der|of my|right- * ful|cause, While|an- * guish|from _ my|bo- * som _|draws The|deep- felt|
w: How|long, ye|sons of|pride, _ how|long Shall|false- * hood|arm _ your|im- * pious _|tongue? How|long shall|
 B2 z2 B2 | (B2 A2) =B2 | c4 (cB) | A4 (BA) | G4 G2 | (A2 G2) ^F2 | G4 D2 | G4 G2 | G4 G2 | %19
w: breast has|learn'd _ his|fear, Bows _|to my _|plaint the|wil- * ling|ear: Him|wouldst thou|please? With|
w: sigh, the|cease- * less|pray’r, O _|make thy _|ser- vant|still _ thy|care; That|aid, which|oft my|
w: se- cret|love _ of|ill To _|wretch- ed _|ma- lice|prompt _ your|will, And|er- ring|rage your|
 (A2 B2) A2 | B4 B2 | G4 A2 | B4 B2 | (G2 c2) (BA) | B4 |] %25
w: re- * v'rent|awe Ob-|serve the|dic- tates|of _ his _|law.|
w: griefs _ has|heal’d, That|aid, a-|gain in-|trea- * ted, _|yield.|
w: breast _ in-|flame, My|pow'r to|thwart, my|acts _ de- *|fame?|
V:3
 B,2 | B,4 B,2 | B,4 B,2 | (D,2 E,2) F,2 | B,4 B,,2 | (B,,2 C,D,) E,2 | E,4 D,2 | C,4 F,2 | %8
w: To|God my|heart shall|vent _ its|woe, Who,|prompt _ _ his|bles- sings|to be-|
w: De-|fen- der|of my|right- * ful|cause, While|an- * * guish|from my|bo- som|
w: How|long, ye|sons of|pride, _ how|long Shall|false- * * hood|arm your|im- pious|
 B,,4 B,,2 | D,4 F,2 | B,2 z2 B,2 | F,4 D,2 | C,4 C,2 | F,4 B,,2 | E,4 E,2 | C,4 D,2 | G,4 G,2 | %17
w: stow On|each whose|breast has|learn'd his|fear, Bows|to my|plaint the|wil- ling|ear: Him|
w: draws The|deep- felt|sigh, the|cease- less|pray’r, O|make thy|ser- vant|still thy|care; That|
w: tongue? How|long shall|se- cret|love of|ill To|wretch- ed|ma- lice|prompt your|will, And|
"^Notes: The first verse only of the text is underlaid in the source, with the other verses given here printed after the music." E,4 E,2 | %18
w: wouldst thou|
w: aid, which|
w: er- ring|
 C,4 C,2 | F,4 F,2 | B,4 D,2 | E,4 F,2 | G,4 G,2 | C,4 F,2 | B,,4 |] %25
w: please? With|re- v'rent|awe Ob-|serve the|dic- tates|of his|law.|
w: oft my|griefs has|heal’d, That|aid, a-|gain in-|trea- ted,|yield.|
w: rage your|breast in-|flame, My|pow'r to|thwart, my|acts de-|fame?|

